X:1
T:Title
%%score 1 2
L:1/8
Q:1/4=75
M:9/8
K:Ab
V:1 treble nm="Strings 1, Soprano"
V:2 bass nm="Strings 1, Bass"
V:1
 z3 z3 [Ec][DB][CA] | [CE]3 [A,C]2 [CE] [CA][DB][Ec] | [Fd]3 [DF]3 [FA][EG][DF] | %3
w: 1.~Oh,~ how~ sub|lime~ is~ the~ life~ of~ the~|Chris tian,~ Filled~ with~ the~|
 [CE]3 [EA]2 [Ec] [Ee][Ed][Ec] | [EB]6 [Ed][Ec][EB] | [Ec]3 [CA]2 [EA] [FA][EG][DF] | %6
w: glo ry~ of~ Je sus~ di|vine;~ Deep~ in~ his~|bos om~ he's~ joy ful ly~|
 [CE]3 [CA]3 [DF][DF][Fd] | [Ec]3 [CA]2 [Ec] [DB][CA][DG] | [CA]6 [EB][EB][EB] | %9
w: con scious~ That~ he~ is~|born~ of~ a~ heav en ly~|line.~ * * *|
 [EB]3- [EB]2 [Ec] [Ed][Ec][EB] | [Ec]6 [Ac][Ac][Ac] | [Ac]3- [Ac]2 [Ae] [A=d][Ac][Ad] | %12
w: |||
 [Ge]6 E[=DF][_DG] | [CA][DB][Ec] [Ec][EB][_GA] [Fd]3- | [Fd]3 [EB][EB][EB] E[=DF][_DG] | %15
w: |||
 [CA]6 z3 |] %16
w: |
V:2
 z3 z3 [A,,A,][A,,A,][A,,A,] | [A,,A,]3 [A,,E,]2 [A,,A,] [A,,A,][A,,A,][A,,A,] | %2
 [D,A,]3 [D,A,]3 [D,A,][D,A,][D,A,] | [A,,A,]3 [C,A,]2 [E,A,] [A,C][G,B,]A, | %4
 [E,G,]6 [E,B,][E,A,][E,G,] | [A,,A,]3 [A,,A,]2 [C,A,] [D,A,][D,A,][D,A,] | %6
 [A,,A,]3 [A,,A,]3 [D,A,][D,A,][D,A,] | [E,A,]3 [E,A,]2 [E,A,] [E,G,][E,A,][E,B,] | %8
 [A,,A,]6 [E,G,][E,G,][E,G,] | [E,G,][E,G,][E,G,] [E,G,]3 [E,B,][E,A,][E,G,] | %10
 A,A,A, A,3 [A,E][A,E][A,E] | [A,E]3- [A,E]2 [A,C] B,B,B, | [E,B,]6 [E,G,][E,A,][E,B,] | %13
 [A,,A,][A,,A,][A,,A,] [A,,A,][B,,G,][C,A,] [D,A,]3- | %14
 [D,A,]3 [E,G,][E,G,][E,G,] [E,G,][E,A,][E,B,] | [A,,A,]6 z3 |] %16

